X:1
T:Title
L:1/8
M:4/4
K:Eb
V:1 treble nm="Midi_1"
V:1
 E2 G2 B2 cd | e2"^Descant to AMNS 224" d2 c2 =B2 | c2 dc B2 e2 | g2 f2 e4 | B4 c2 e2- | %5
w: 3.~Spi- rit of our *|God, de- scen- ding,|fill our * hearts with|heav'n- ly joy,|love with pass|
 e2 e2 d2 e2 | f2 d2 gf e2 | d2 c2 d4 | e2 e2 _d2 B2 | c2 !courtesy!=d2 c2 =B2 | c2 e2 d2 c2 | %11
w: * ion blen- ding,|plea- sure that * can|ne- ver cloy:|thus pro- vi- ded,|par- doned, guid- ed,|no- thing can our|
"^Descant by Andrew Sims\nbased on harmony by Noel Rawsthorne\n24 June 2016" c2 d2 e4 |] %12
w: peace de- stroy.|

